src/components/Powered/assets/logo-footer.svg

<svg width="55" height="50" viewBox="0 0 55 50" fill="none" xmlns="http://www.w3.org/2000/svg">
<path d="M29.3449 34.9062C37.8927 34.9062 44.8221 27.968 44.8221 19.4094C44.8221 10.8507 37.8927 3.9126 29.3449 3.9126C20.7971 3.9126 13.8677 10.8507 13.8677 19.4094C13.8677 27.968 20.7971 34.9062 29.3449 34.9062Z" fill="#9EBFFF"/>
<path d="M40.3682 15.1812C41.4774 16.6847 41.904 18.0426 41.904 19.8878C41.904 22.1261 40.9825 24.1934 39.4126 25.8678L40.3682 29.4388H43.2691L46.3236 25.9703L47.1427 20.8959L47.3133 17.8717L44.293 14.4545C41.6076 14.131 40.2993 14.3732 40.3682 15.1812Z" fill="white"/>
<path d="M6.59789 29.8488L7.12688 31.9503C7.12688 31.9503 13.3724 44.7817 27.4333 49.5487C27.4333 49.5487 40.2256 44.0812 45.908 34.8036L38.0643 27.9523C38.0643 27.9523 34.3102 30.9423 28.7302 30.9423C23.1502 30.9423 15.5737 27.6105 15.5737 20.7421C15.5737 13.8736 23.4232 11.362 23.4232 11.362L20.0786 10.5419H11.5294L6.10303 23.6296L6.59789 29.8488Z" fill="white"/>
<path d="M53.8485 15.4248C53.6096 15.1856 47.5211 7.78744 28.5287 1.2436C27.9284 0.832417 27.603 0.705475 27.5525 0.862769C9.91141 5.36692 1.25659 14.833 1.25659 15.4248C1.25659 16.0166 3.78209 24.911 5.42026 28.5332C5.55677 28.8407 7.74099 32.7021 9.36209 34.8037C8.40649 32.7021 7.36558 30.8739 7.36558 27.7302C7.36558 18.8626 14.2254 11.6525 22.8087 11.3449C23.0134 11.3449 23.2353 11.3449 23.4401 11.362L21.3923 9.3117C21.3923 9.3117 29.6344 7.92776 40.2142 14.3349C40.2142 14.3349 40.3677 14.6595 40.2142 15.6164C40.2142 15.6164 45.1969 17.7692 45.6235 21.9552C46.0501 26.1412 43.4052 28.5332 41.2721 28.8749C41.2721 28.8749 42.3813 27.1492 40.6749 26.2266C40.3165 26.0216 39.8899 25.9361 39.4633 25.9532C36.2041 25.9532 35.8287 29.6779 35.8287 29.6779C35.7945 29.8659 35.7945 30.0538 35.7945 30.2418C35.7945 30.2418 35.2485 35.6921 44.9409 35.5896C44.9409 35.5896 49.8554 30.0196 51.1523 25.0135C51.6301 23.1683 51.9714 21.7843 52.1932 20.7592C52.7393 19.3069 53.2683 17.1675 53.7802 15.6127L53.8485 15.4248Z" fill="#28548B"/>
<path opacity="0.895424" d="M35.9992 15.9924C36.1357 15.924 36.5794 15.7019 37.0913 15.1722C38.1152 15.3089 39.122 15.6336 39.122 15.6336C37.262 14.5059 34.7194 13.8396 31.9038 13.8566C31.9038 13.8566 32.9789 15.3944 35.9651 16.0265C35.9651 16.0265 35.9822 16.0095 35.9992 15.9924Z" fill="white"/>
<path d="M54.0363 14.5831C43.7637 5.69736 30.7778 1.08023 28.0817 0.191654L27.8257 0.104539L27.4844 0L26.8872 0.191654C24.191 1.08023 11.2052 5.69736 0.932528 14.5831L0.710693 14.7748L0.761886 15.071C0.77895 15.1407 1.88812 21.8834 5.67637 29.4973C7.91179 33.9751 10.625 37.8604 13.7307 41.0837C17.536 45.0213 21.9727 47.931 26.9042 49.743L27.1943 49.8475L27.4844 49.952L27.7916 49.8301L28.0817 49.7255C33.0132 47.9135 37.4328 45.0039 41.2552 41.0663C44.3609 37.8604 47.0741 33.9576 49.3095 29.4799C53.0978 21.8834 54.224 15.1233 54.224 15.0536L54.2752 14.7574L54.0363 14.5831ZM48.371 29.0095C46.1868 33.3827 43.5418 37.1983 40.5044 40.3345C36.7332 44.2198 32.3648 47.0772 27.4844 48.837C22.6041 47.0772 18.2356 44.2373 14.4644 40.3519C11.427 37.2158 8.78206 33.4175 6.59784 29.0443C3.30445 22.4584 2.07583 16.552 1.81987 15.1929C12.3485 6.1852 25.6586 1.69004 27.4844 1.09766C29.2932 1.69004 42.6204 6.1852 53.149 15.1929C52.893 16.5345 51.6473 22.441 48.371 29.0095Z" fill="#9EBFFF"/>
</svg>

<svg width="55" height="50" fill="none" xmlns="http://www.w3.org/2000/svg"><path d="M29.345 34.906c8.548 0 15.477-6.938 15.477-15.497 0-8.558-6.93-15.496-15.477-15.496-8.548 0-15.477 6.938-15.477 15.496 0 8.559 6.93 15.497 15.477 15.497z" fill="#9EBFFF"/><path d="M40.368 15.181c1.11 1.504 1.536 2.862 1.536 4.707 0 2.238-.922 4.305-2.491 5.98l.955 3.57h2.901l3.055-3.468.819-5.074.17-3.024-3.02-3.418c-2.685-.323-3.994-.08-3.925.727z" fill="#fff"/><path d="M6.598 29.849l.529 2.101s6.245 12.832 20.306 17.599c0 0 12.793-5.468 18.475-14.745l-7.844-6.852s-3.754 2.99-9.334 2.99-13.156-3.332-13.156-10.2c0-6.868 7.85-9.38 7.85-9.38l-3.345-.82h-8.55L6.103 23.63l.495 6.219z" fill="#fff"/><path d="M53.849 15.425c-.24-.24-6.328-7.638-25.32-14.181-.6-.412-.926-.539-.977-.381C9.912 5.367 1.257 14.833 1.257 15.425c0 .592 2.525 9.486 4.163 13.108.137.308 2.321 4.17 3.942 6.27-.956-2.1-1.996-3.93-1.996-7.073 0-8.867 6.86-16.078 15.443-16.385.204 0 .426 0 .631.017l-2.048-2.05s8.242-1.384 18.822 5.023c0 0 .154.324 0 1.281 0 0 4.983 2.153 5.41 6.34.426 4.185-2.219 6.577-4.352 6.919 0 0 1.11-1.726-.597-2.648a2.263 2.263 0 0 0-1.212-.274c-3.259 0-3.634 3.725-3.634 3.725-.035.188-.035.376-.035.564 0 0-.545 5.45 9.147 5.348 0 0 4.914-5.57 6.211-10.577.478-1.845.82-3.229 1.041-4.254.546-1.452 1.075-3.591 1.587-5.146l.069-.188z" fill="#28548B"/><path opacity=".895" d="M36 15.992c.136-.068.58-.29 1.091-.82 1.024.137 2.031.462 2.031.462-1.86-1.128-4.403-1.794-7.218-1.777 0 0 1.075 1.537 4.061 2.17l.034-.035z" fill="#fff"/><path d="M54.036 14.583C43.764 5.697 30.778 1.08 28.082.192l-.256-.087L27.484 0l-.597.192C24.191 1.08 11.205 5.697.933 14.583l-.222.192.05.296c.018.07 1.127 6.812 4.915 14.426 2.236 4.478 4.949 8.363 8.055 11.587 3.805 3.937 8.242 6.847 13.173 8.659l.29.104.29.105.308-.122.29-.105c4.931-1.812 9.35-4.721 13.173-8.659 3.106-3.206 5.82-7.108 8.054-11.586 3.789-7.597 4.915-14.357 4.915-14.426l.051-.297-.239-.174zM48.371 29.01c-2.184 4.374-4.83 8.19-7.867 11.325-3.77 3.886-8.14 6.743-13.02 8.503-4.88-1.76-9.248-4.6-13.02-8.485-3.037-3.136-5.682-6.934-7.866-11.308-3.294-6.586-4.522-12.492-4.778-13.851C12.348 6.185 25.659 1.69 27.484 1.098c1.81.592 15.136 5.087 25.665 14.095-.256 1.342-1.502 7.248-4.778 13.816z" fill="#9EBFFF"/></svg>
